packages/web-icons/svgs/speaker.svg

<svg viewBox="0 0 48 49" xmlns="http://www.w3.org/2000/svg" class="ridi_icon"><path d="M25.5 0c-.5 0-1 .4-1 1s.4 1 1 1c11.1 0 20.2 9.1 20.2 20.2 0 .5.4 1 1 1 .5 0 1-.4 1-.9C47.7 9.9 37.8 0 25.5 0z"/><path d="M25.5 6.2c-.5 0-1 .4-1 1s.4 1 1 1c7.7 0 14 6.3 14 14 0 .5.4 1 1 1s1-.4 1-.9c0-8.9-7.2-16.1-16-16.1zm-7.6.5c-.5-.3-1-.4-1.6-.2-.6.2-1 .5-1.2 1L6.6 25.2c-.3.6-.2 1.4.1 1.9l-3.6 3.6C1.3 32.5.3 34.9.3 37.4s1 4.9 2.8 6.7c1.8 1.8 4.2 2.8 6.7 2.8 1.7 0 3.4-.5 4.9-1.3 1.7 1.6 3.9 2.5 5.8 2.5 1.5 0 2.9-.5 4-1.6.7-.7.7-2 0-2.7-.7-.7-2-.8-2.7 0-.7.7-2.5.6-4.1-.7l2.5-2.5c.3.2.7.3 1.1.3.3 0 .6-.1.8-.2l17.7-8.5c.5-.2.9-.7 1-1.2.2-.5.1-1.1-.2-1.6-6.1-9.2-13.7-16.8-22.7-22.7zm-12 34.7c-1-1.1-1.6-2.5-1.6-3.9s.6-2.9 1.6-3.9l4-4c3 2.3 5.6 4.9 7.9 7.9l-4 4c-2.2 2-5.8 2-7.9-.1zm15.9-5c-3-4.3-6.7-8-11-11l6.8-14.2c7.2 5 13.4 11.2 18.4 18.4l-14.2 6.8z"/></svg>

<?xml version="1.0" encoding="UTF-8"?>
<svg width="48px" height="49px" viewBox="0 0 48 49" version="1.1" xmlns="http://www.w3.org/2000/svg">
  <!-- Generator: Sketch 41.2 (35397) - http://www.bohemiancoding.com/sketch -->
  <title>speaker</title>
  <desc>Created with Sketch.</desc>
  <defs></defs>
  <g id="Page-1" stroke="none" stroke-width="1" fill="none" fill-rule="evenodd">
    <g id="speaker" fill="#444444">
      <g id="레이어_1">
        <path d="M25.5,0 C25,0 24.5,0.4 24.5,1 C24.5,1.6 24.9,2 25.5,2 C36.6,2 45.7,11.1 45.7,22.2 C45.7,22.7 46.1,23.2 46.7,23.2 C47.2,23.2 47.7,22.8 47.7,22.3 C47.7,9.9 37.8,0 25.5,0 Z" id="Shape"></path>
        <path d="M25.5,6.2 C25,6.2 24.5,6.6 24.5,7.2 C24.5,7.8 24.9,8.2 25.5,8.2 C33.2,8.2 39.5,14.5 39.5,22.2 C39.5,22.7 39.9,23.2 40.5,23.2 C41.1,23.2 41.5,22.8 41.5,22.3 C41.5,13.4 34.3,6.2 25.5,6.2 Z" id="Shape"></path>
        <path d="M17.9,6.7 C17.4,6.4 16.9,6.3 16.3,6.5 C15.7,6.7 15.3,7 15.1,7.5 L6.6,25.2 C6.3,25.8 6.4,26.6 6.7,27.1 L3.1,30.7 C1.3,32.5 0.3,34.9 0.3,37.4 C0.3,39.9 1.3,42.3 3.1,44.1 C4.9,45.9 7.3,46.9 9.8,46.9 C11.5,46.9 13.2,46.4 14.7,45.6 C16.4,47.2 18.6,48.1 20.5,48.1 C22,48.1 23.4,47.6 24.5,46.5 C25.2,45.8 25.2,44.5 24.5,43.8 C23.8,43.1 22.5,43 21.8,43.8 C21.1,44.5 19.3,44.4 17.7,43.1 L20.2,40.6 C20.5,40.8 20.9,40.9 21.3,40.9 C21.6,40.9 21.9,40.8 22.1,40.7 L39.8,32.2 C40.3,32 40.7,31.5 40.8,31 C41,30.5 40.9,29.9 40.6,29.4 C34.5,20.2 26.9,12.6 17.9,6.7 L17.9,6.7 Z M5.9,41.4 C4.9,40.3 4.3,38.9 4.3,37.5 C4.3,36.1 4.9,34.6 5.9,33.6 L9.9,29.6 C12.9,31.9 15.5,34.5 17.8,37.5 L13.8,41.5 C11.6,43.5 8,43.5 5.9,41.4 L5.9,41.4 Z M21.8,36.4 C18.8,32.1 15.1,28.4 10.8,25.4 L17.6,11.2 C24.8,16.2 31,22.4 36,29.6 L21.8,36.4 Z" id="Shape"></path>
      </g>
    </g>
  </g>
</svg>
